images/tools/07-revisions_history.svg

<svg xmlns="http://www.w3.org/2000/svg" width="24" height="24" viewBox="0 0 24 24"><path d="M11 7v5.11l4.71 2.79.79-1.28-4-2.37V7m0-5C8.97 2 5.91 3.92 4.27 6.77L2 4.5V11h6.5L5.75 8.25C6.96 5.73 9.5 4 12.5 4a7.5 7.5 0 0 1 7.5 7.5 7.5 7.5 0 0 1-7.5 7.5c-3.27 0-6.03-2.09-7.06-5h-2.1c1.1 4.03 4.77 7 9.16 7 5.24 0 9.5-4.25 9.5-9.5A9.5 9.5 0 0 0 12.5 2z"/></svg>

<?xml version="1.0" encoding="UTF-8"?><!DOCTYPE svg PUBLIC "-//W3C//DTD SVG 1.1//EN" "http://www.w3.org/Graphics/SVG/1.1/DTD/svg11.dtd"><svg xmlns="http://www.w3.org/2000/svg" xmlns:xlink="http://www.w3.org/1999/xlink" version="1.1" width="24" height="24" viewBox="0 0 24 24"><path d="M11,7V12.11L15.71,14.9L16.5,13.62L12.5,11.25V7M12.5,2C8.97,2 5.91,3.92 4.27,6.77L2,4.5V11H8.5L5.75,8.25C6.96,5.73 9.5,4 12.5,4A7.5,7.5 0 0,1 20,11.5A7.5,7.5 0 0,1 12.5,19C9.23,19 6.47,16.91 5.44,14H3.34C4.44,18.03 8.11,21 12.5,21C17.74,21 22,16.75 22,11.5A9.5,9.5 0 0,0 12.5,2Z" /></svg>
